icons/circle/48/huayra-motion.svg

<svg xmlns="http://www.w3.org/2000/svg" xmlns:xlink="http://www.w3.org/1999/xlink" viewBox="0 0 48 48">
 <defs>
  <linearGradient id="linearGradient4314">
   <stop style="stop-color:#4caec4;stop-opacity:1"/>
   <stop offset="1" style="stop-color:#40a9c0;stop-opacity:1"/>
  </linearGradient>
  <linearGradient id="linearGradient3764" x1="1" x2="47" gradientUnits="userSpaceOnUse" gradientTransform="matrix(0,-1,1,0,-1.5e-6,47.999998)">
   <stop style="stop-color:#bae1ea;stop-opacity:1"/>
   <stop offset="1" style="stop-color:#c9e8ef;stop-opacity:1"/>
  </linearGradient>
  <radialGradient xlink:href="#linearGradient4314" id="radialGradient4304" cx="29" cy="19" r="8" gradientUnits="userSpaceOnUse"/>
  <radialGradient xlink:href="#linearGradient4314" id="radialGradient4312" cx="21.854" cy="26.15" r="6.854" gradientTransform="matrix(1,0,0,0.99971508,0,0.00745)" gradientUnits="userSpaceOnUse"/>
  <radialGradient xlink:href="#linearGradient4314" id="radialGradient4320" cx="15.816" cy="32.19" r="4.816" gradientTransform="matrix(1,0,0,0.99959451,0,0.01305089)" gradientUnits="userSpaceOnUse"/>
 </defs>
 <g>
  <path d="m 36.31 5 c 5.859 4.062 9.688 10.831 9.688 18.5 c 0 12.426 -10.07 22.5 -22.5 22.5 c -7.669 0 -14.438 -3.828 -18.5 -9.688 c 1.037 1.822 2.306 3.499 3.781 4.969 c 4.085 3.712 9.514 5.969 15.469 5.969 c 12.703 0 23 -10.298 23 -23 c 0 -5.954 -2.256 -11.384 -5.969 -15.469 c -1.469 -1.475 -3.147 -2.744 -4.969 -3.781 z m 4.969 3.781 c 3.854 4.113 6.219 9.637 6.219 15.719 c 0 12.703 -10.297 23 -23 23 c -6.081 0 -11.606 -2.364 -15.719 -6.219 c 4.16 4.144 9.883 6.719 16.219 6.719 c 12.703 0 23 -10.298 23 -23 c 0 -6.335 -2.575 -12.06 -6.719 -16.219 z" style="opacity:0.05"/>
  <path d="m 41.28 8.781 c 3.712 4.085 5.969 9.514 5.969 15.469 c 0 12.703 -10.297 23 -23 23 c -5.954 0 -11.384 -2.256 -15.469 -5.969 c 4.113 3.854 9.637 6.219 15.719 6.219 c 12.703 0 23 -10.298 23 -23 c 0 -6.081 -2.364 -11.606 -6.219 -15.719 z" style="opacity:0.1"/>
  <path d="m 31.25 2.375 c 8.615 3.154 14.75 11.417 14.75 21.13 c 0 12.426 -10.07 22.5 -22.5 22.5 c -9.708 0 -17.971 -6.135 -21.12 -14.75 a 23 23 0 0 0 44.875 -7 a 23 23 0 0 0 -16 -21.875 z" style="opacity:0.2"/>
 </g>
 <g>
  <path d="m 24 1 c 12.703 0 23 10.297 23 23 c 0 12.703 -10.297 23 -23 23 -12.703 0 -23 -10.297 -23 -23 0 -12.703 10.297 -23 23 -23 z" style="fill:url(#linearGradient3764);fill-opacity:1"/>
 </g>
 <g>
  <path d="m 40.03 7.531 c 3.712 4.084 5.969 9.514 5.969 15.469 0 12.703 -10.297 23 -23 23 c -5.954 0 -11.384 -2.256 -15.469 -5.969 4.178 4.291 10.01 6.969 16.469 6.969 c 12.703 0 23 -10.298 23 -23 0 -6.462 -2.677 -12.291 -6.969 -16.469 z" style="opacity:0.1"/>
 </g>
 <path d="m 30 12 a 8 8 0 0 0 -8 8 8 8 0 0 0 8 8 8 8 0 0 0 8 -8 8 8 0 0 0 -8 -8 z m -8.988 8.295 A 7 7 0 0 0 16 27 a 7 7 0 0 0 7 7 7 7 0 0 0 6.709 -5.01 9 9 0 0 1 -8.697 -8.691 z m -5.893 8.08 A 5 5 0 0 0 12 33 a 5 5 0 0 0 5 5 5 5 0 0 0 4.633 -3.127 8 8 0 0 1 -6.514 -6.502 z" style="fill:#000;opacity:0.1;fill-opacity:1;stroke:none"/>
 <path d="M 14.12 27.371 A 5 5 0 0 0 11 32 A 5 5 0 0 0 16 37 A 5 5 0 0 0 20.633 33.873 A 8 8 0 0 1 14.12 27.371 z" style="fill:url(#radialGradient4320);opacity:1;fill-opacity:1;stroke:none"/>
 <path d="M 20.01 19.295 A 7 7 0 0 0 15 26 A 7 7 0 0 0 22 33 A 7 7 0 0 0 28.709 27.986 A 9 9 0 0 1 20.01 19.295 z" style="fill:url(#radialGradient4312);opacity:1;fill-opacity:1;stroke:none"/>
 <circle cx="29" cy="19" r="8" style="fill:url(#radialGradient4304);opacity:1;fill-opacity:1;stroke:none"/>
</svg>

<svg xmlns="http://www.w3.org/2000/svg" xmlns:xlink="http://www.w3.org/1999/xlink" viewBox="0 0 48 48">
  <defs>
    <linearGradient id="a">
      <stop stop-color="#4caec4"/>
      <stop offset="1" stop-color="#40a9c0"/>
    </linearGradient>
    <linearGradient id="b" x1="1" x2="47" gradientUnits="userSpaceOnUse" gradientTransform="rotate(-90 24 24)">
      <stop stop-color="#bae1ea"/>
      <stop offset="1" stop-color="#c9e8ef"/>
    </linearGradient>
    <radialGradient xlink:href="#a" id="e" cx="29" cy="19" r="8" gradientUnits="userSpaceOnUse"/>
    <radialGradient xlink:href="#a" id="d" cx="21.854" cy="26.15" r="6.854" gradientTransform="matrix(1 0 0 .99972 0 .007)" gradientUnits="userSpaceOnUse"/>
    <radialGradient xlink:href="#a" id="c" cx="15.816" cy="32.19" r="4.816" gradientTransform="matrix(1 0 0 .9996 0 .013)" gradientUnits="userSpaceOnUse"/>
  </defs>
  <path d="M36.31 5c5.859 4.062 9.688 10.831 9.688 18.5 0 12.426-10.07 22.5-22.5 22.5-7.669 0-14.438-3.828-18.5-9.688a23.24 23.24 0 0 0 3.781 4.969 22.923 22.923 0 0 0 15.469 5.969c12.703 0 23-10.298 23-23a22.92 22.92 0 0 0-5.969-15.469A23.216 23.216 0 0 0 36.31 5zm4.969 3.781A22.911 22.911 0 0 1 47.498 24.5c0 12.703-10.297 23-23 23a22.909 22.909 0 0 1-15.719-6.219C12.939 45.425 18.662 48 24.998 48c12.703 0 23-10.298 23-23 0-6.335-2.575-12.06-6.719-16.219z" opacity=".05"/>
  <path d="M41.28 8.781a22.923 22.923 0 0 1 5.969 15.469c0 12.703-10.297 23-23 23A22.92 22.92 0 0 1 8.78 41.281 22.911 22.911 0 0 0 24.499 47.5c12.703 0 23-10.298 23-23A22.909 22.909 0 0 0 41.28 8.781z" opacity=".1"/>
  <path d="M31.25 2.375C39.865 5.529 46 13.792 46 23.505c0 12.426-10.07 22.5-22.5 22.5-9.708 0-17.971-6.135-21.12-14.75a23 23 0 0 0 44.875-7 23 23 0 0 0-16-21.875z" opacity=".2"/>
  <path d="M24 1c12.703 0 23 10.297 23 23S36.703 47 24 47 1 36.703 1 24 11.297 1 24 1z" fill="url(#b)"/>
  <path d="M40.03 7.531A22.922 22.922 0 0 1 45.999 23c0 12.703-10.297 23-23 23A22.92 22.92 0 0 1 7.53 40.031C11.708 44.322 17.54 47 23.999 47c12.703 0 23-10.298 23-23 0-6.462-2.677-12.291-6.969-16.469z" opacity=".1"/>
  <path d="M30 12a8 8 0 0 0-8 8 8 8 0 0 0 8 8 8 8 0 0 0 8-8 8 8 0 0 0-8-8zm-8.988 8.295A7 7 0 0 0 16 27a7 7 0 0 0 7 7 7 7 0 0 0 6.709-5.01 9 9 0 0 1-8.697-8.691zm-5.893 8.08A5 5 0 0 0 12 33a5 5 0 0 0 5 5 5 5 0 0 0 4.633-3.127 8 8 0 0 1-6.514-6.502z" opacity=".1"/>
  <path d="M14.12 27.371A5 5 0 0 0 11 32a5 5 0 0 0 5 5 5 5 0 0 0 4.633-3.127 8 8 0 0 1-6.513-6.502z" fill="url(#c)"/>
  <path d="M20.01 19.295A7 7 0 0 0 15 26a7 7 0 0 0 7 7 7 7 0 0 0 6.709-5.014 9 9 0 0 1-8.699-8.691z" fill="url(#d)"/>
  <circle cx="29" cy="19" r="8" fill="url(#e)"/>
</svg>
